images/member-management.svg

<svg height="64" viewBox="0 0 64 64" width="64" xmlns="http://www.w3.org/2000/svg"><path d="m28 6c-1.101562 0-2 .898438-2 2v4h-23c-1.648438 0-3 1.351562-3 3v38c0 1.648438 1.351562 3 3 3h58c1.648438 0 3-1.351562 3-3v-38c0-1.648438-1.351562-3-3-3h-23v-4c0-1.101562-.898438-2-2-2zm0 2h8v7.429688l-4 2.398437-4-2.398437zm-25 6h23v1.429688c0 .699218.371094 1.359374.96875 1.722656l4 2.398437c.320312.191407.671875.277344 1.03125.277344s.710938-.085937 1.03125-.277344l4-2.398437c.597656-.363282.96875-1.023438.96875-1.722656v-1.429688h23c.550781 0 1 .449219 1 1v31c-.601562 0-1 .445312-1 1v2c0 .554688.398438 1 1 1v3c0 .550781-.449219 1-1 1h-58c-.550781 0-1-.449219-1-1v-3c.601562 0 1-.445312 1-1v-2c0-.554688-.398438-1-1-1v-31c0-.550781.449219-1 1-1zm16 6c-3.859375 0-7 3.140625-7 7v2c0 1.609375.539062 3.300781 1.480469 4.710938-3.128907 1.128906-5.800781 3.550781-7.378907 6.859374-.242187.5-.03125 1.089844.46875 1.332032.5.238281 1.089844.027344 1.328126-.472656 1.480468-3.089844 4.042968-5.269532 7.011718-6.070313 1.128906 1 2.539063 1.640625 4.089844 1.640625s2.960938-.640625 4.089844-1.640625c2.96875.800781 5.53125 2.980469 7.007812 6.070313.171875.359374.53125.570312.902344.570312.148438 0 .289062-.03125.429688-.097656.5-.242188.710937-.832032.472656-1.332032-1.582032-3.308593-4.253906-5.730468-7.382813-6.859374.941407-1.410157 1.480469-3.101563 1.480469-4.710938v-2c0-3.859375-3.140625-7-7-7zm0 2c2.761719 0 5 2.238281 5 5v2c0 1.421875-.601562 2.988281-1.578125 4.160156-.890625 1.089844-2.101563 1.839844-3.421875 1.839844s-2.53125-.75-3.421875-1.839844c-.976563-1.171875-1.578125-2.738281-1.578125-4.160156v-2c0-2.761719 2.238281-5 5-5zm16 4c-.554688 0-1 .445312-1 1s.445312 1 1 1h18c.554688 0 1-.445312 1-1s-.445312-1-1-1zm0 4c-.554688 0-1 .445312-1 1s.445312 1 1 1h7c.554688 0 1-.445312 1-1s-.445312-1-1-1zm11 0c-.554688 0-1 .445312-1 1s.445312 1 1 1h2c.554688 0 1-.445312 1-1s-.445312-1-1-1zm-11 4c-.554688 0-1 .445312-1 1s.445312 1 1 1h16c.554688 0 1-.445312 1-1s-.445312-1-1-1zm-28 12c-.601562 0-1 .445312-1 1v2c0 .554688.398438 1 1 1s1-.445312 1-1v-2c0-.550781-.398438-1-1-1zm5 0c-.601562 0-1 .445312-1 1v2c0 .554688.398438 1 1 1s1-.445312 1-1v-2c0-.550781-.398438-1-1-1zm5 0c-.601562 0-1 .445312-1 1v2c0 .554688.398438 1 1 1s1-.445312 1-1v-2c0-.550781-.398438-1-1-1zm5 0c-.601562 0-1 .445312-1 1v2c0 .554688.398438 1 1 1s1-.445312 1-1v-2c0-.550781-.398438-1-1-1zm5 0c-.601562 0-1 .445312-1 1v2c0 .554688.398438 1 1 1s1-.445312 1-1v-2c0-.550781-.398438-1-1-1zm5 0c-.601562 0-1 .445312-1 1v2c0 .554688.398438 1 1 1s1-.445312 1-1v-2c0-.550781-.398438-1-1-1zm5 0c-.601562 0-1 .445312-1 1v2c0 .554688.398438 1 1 1s1-.445312 1-1v-2c0-.550781-.398438-1-1-1zm5 0c-.601562 0-1 .445312-1 1v2c0 .554688.398438 1 1 1s1-.445312 1-1v-2c0-.550781-.398438-1-1-1zm5 0c-.601562 0-1 .445312-1 1v2c0 .554688.398438 1 1 1s1-.445312 1-1v-2c0-.550781-.398438-1-1-1zm5 0c-.601562 0-1 .445312-1 1v2c0 .554688.398438 1 1 1s1-.445312 1-1v-2c0-.550781-.398438-1-1-1zm5 0c-.601562 0-1 .445312-1 1v2c0 .554688.398438 1 1 1s1-.445312 1-1v-2c0-.550781-.398438-1-1-1zm0 0" fill="#003e6b"/></svg>

<?xml version="1.0" encoding="UTF-8"?>
<svg xmlns="http://www.w3.org/2000/svg" viewBox="0 0 64 64" width="64px" height="64px">
<g id="surface12902541">
<path style=" stroke:none;fill-rule:nonzero;fill:rgb(0%,24.313726%,41.960785%);fill-opacity:1;" d="M 28 6 C 26.898438 6 26 6.898438 26 8 L 26 12 L 3 12 C 1.351562 12 0 13.351562 0 15 L 0 53 C 0 54.648438 1.351562 56 3 56 L 61 56 C 62.648438 56 64 54.648438 64 53 L 64 15 C 64 13.351562 62.648438 12 61 12 L 38 12 L 38 8 C 38 6.898438 37.101562 6 36 6 Z M 28 8 L 36 8 L 36 15.429688 L 32 17.828125 L 28 15.429688 Z M 3 14 L 26 14 L 26 15.429688 C 26 16.128906 26.371094 16.789062 26.96875 17.152344 L 30.96875 19.550781 C 31.289062 19.742188 31.640625 19.828125 32 19.828125 C 32.359375 19.828125 32.710938 19.742188 33.03125 19.550781 L 37.03125 17.152344 C 37.628906 16.789062 38 16.128906 38 15.429688 L 38 14 L 61 14 C 61.550781 14 62 14.449219 62 15 L 62 46 C 61.398438 46 61 46.445312 61 47 L 61 49 C 61 49.554688 61.398438 50 62 50 L 62 53 C 62 53.550781 61.550781 54 61 54 L 3 54 C 2.449219 54 2 53.550781 2 53 L 2 50 C 2.601562 50 3 49.554688 3 49 L 3 47 C 3 46.445312 2.601562 46 2 46 L 2 15 C 2 14.449219 2.449219 14 3 14 Z M 19 20 C 15.140625 20 12 23.140625 12 27 L 12 29 C 12 30.609375 12.539062 32.300781 13.480469 33.710938 C 10.351562 34.839844 7.679688 37.261719 6.101562 40.570312 C 5.859375 41.070312 6.070312 41.660156 6.570312 41.902344 C 7.070312 42.140625 7.660156 41.929688 7.898438 41.429688 C 9.378906 38.339844 11.941406 36.160156 14.910156 35.359375 C 16.039062 36.359375 17.449219 37 19 37 C 20.550781 37 21.960938 36.359375 23.089844 35.359375 C 26.058594 36.160156 28.621094 38.339844 30.097656 41.429688 C 30.269531 41.789062 30.628906 42 31 42 C 31.148438 42 31.289062 41.96875 31.429688 41.902344 C 31.929688 41.660156 32.140625 41.070312 31.902344 40.570312 C 30.320312 37.261719 27.648438 34.839844 24.519531 33.710938 C 25.460938 32.300781 26 30.609375 26 29 L 26 27 C 26 23.140625 22.859375 20 19 20 Z M 19 22 C 21.761719 22 24 24.238281 24 27 L 24 29 C 24 30.421875 23.398438 31.988281 22.421875 33.160156 C 21.53125 34.25 20.320312 35 19 35 C 17.679688 35 16.46875 34.25 15.578125 33.160156 C 14.601562 31.988281 14 30.421875 14 29 L 14 27 C 14 24.238281 16.238281 22 19 22 Z M 35 26 C 34.445312 26 34 26.445312 34 27 C 34 27.554688 34.445312 28 35 28 L 53 28 C 53.554688 28 54 27.554688 54 27 C 54 26.445312 53.554688 26 53 26 Z M 35 30 C 34.445312 30 34 30.445312 34 31 C 34 31.554688 34.445312 32 35 32 L 42 32 C 42.554688 32 43 31.554688 43 31 C 43 30.445312 42.554688 30 42 30 Z M 46 30 C 45.445312 30 45 30.445312 45 31 C 45 31.554688 45.445312 32 46 32 L 48 32 C 48.554688 32 49 31.554688 49 31 C 49 30.445312 48.554688 30 48 30 Z M 35 34 C 34.445312 34 34 34.445312 34 35 C 34 35.554688 34.445312 36 35 36 L 51 36 C 51.554688 36 52 35.554688 52 35 C 52 34.445312 51.554688 34 51 34 Z M 7 46 C 6.398438 46 6 46.445312 6 47 L 6 49 C 6 49.554688 6.398438 50 7 50 C 7.601562 50 8 49.554688 8 49 L 8 47 C 8 46.449219 7.601562 46 7 46 Z M 12 46 C 11.398438 46 11 46.445312 11 47 L 11 49 C 11 49.554688 11.398438 50 12 50 C 12.601562 50 13 49.554688 13 49 L 13 47 C 13 46.449219 12.601562 46 12 46 Z M 17 46 C 16.398438 46 16 46.445312 16 47 L 16 49 C 16 49.554688 16.398438 50 17 50 C 17.601562 50 18 49.554688 18 49 L 18 47 C 18 46.449219 17.601562 46 17 46 Z M 22 46 C 21.398438 46 21 46.445312 21 47 L 21 49 C 21 49.554688 21.398438 50 22 50 C 22.601562 50 23 49.554688 23 49 L 23 47 C 23 46.449219 22.601562 46 22 46 Z M 27 46 C 26.398438 46 26 46.445312 26 47 L 26 49 C 26 49.554688 26.398438 50 27 50 C 27.601562 50 28 49.554688 28 49 L 28 47 C 28 46.449219 27.601562 46 27 46 Z M 32 46 C 31.398438 46 31 46.445312 31 47 L 31 49 C 31 49.554688 31.398438 50 32 50 C 32.601562 50 33 49.554688 33 49 L 33 47 C 33 46.449219 32.601562 46 32 46 Z M 37 46 C 36.398438 46 36 46.445312 36 47 L 36 49 C 36 49.554688 36.398438 50 37 50 C 37.601562 50 38 49.554688 38 49 L 38 47 C 38 46.449219 37.601562 46 37 46 Z M 42 46 C 41.398438 46 41 46.445312 41 47 L 41 49 C 41 49.554688 41.398438 50 42 50 C 42.601562 50 43 49.554688 43 49 L 43 47 C 43 46.449219 42.601562 46 42 46 Z M 47 46 C 46.398438 46 46 46.445312 46 47 L 46 49 C 46 49.554688 46.398438 50 47 50 C 47.601562 50 48 49.554688 48 49 L 48 47 C 48 46.449219 47.601562 46 47 46 Z M 52 46 C 51.398438 46 51 46.445312 51 47 L 51 49 C 51 49.554688 51.398438 50 52 50 C 52.601562 50 53 49.554688 53 49 L 53 47 C 53 46.449219 52.601562 46 52 46 Z M 57 46 C 56.398438 46 56 46.445312 56 47 L 56 49 C 56 49.554688 56.398438 50 57 50 C 57.601562 50 58 49.554688 58 49 L 58 47 C 58 46.449219 57.601562 46 57 46 Z M 57 46 "/>
</g>
</svg>
